X: 40
T: POLKAS: Green Cottage Set
T: Green Cottage No. 1 / Glen Cottage No. 1
C: C: Trad. / Trad. / Willie Hunter; S: Polca an Rí
C: Set Leaders: Oleg, Anton, Sophie
Z: Anton Zille ed. arr., Oleg Naumov arr.; Thady Quill / ceili / David Sweenie at The Session
N: https://thesession.org/members/26966/sets/99681
R: Polka
M: 2/4
L: 1/8
Q: 1/4=140
K: Edor
B>A|:"Em"GE ED|B,E E>F|GF ED|"D"GA B/c/B/A/|
"Em"GE ED|B,E EF/A/|"D"BA GF|1 "Em"E2 E>F:|2 "Em"E2 E>A||
|:"Em (C)"Be ef|eB BA|"G (A5)"Be df|"Bm"e2 ef|
"A5 (Em)"g2 fg/f/|ed B>A|"Cadd9 (G)"BE E/F/G/A/|1 "D"B2 B>A:|2 "D (D/B)"B2||
T: Green Cottage No. 2 / Glen Cottage No. 2
K: Gmaj
Bd|:"A5"eA Bd|e/f/e/d/ Bd|eA BA|"G"G>A Bd|
"A5"eA Bd|e/f/e/d/ Bd|"G"ea e/f/e/d/|1 "D"BA "G"AB/d/:|2 "D"BA "G"A2||
|:"A5"e2 ef/g/|ae fe|"D"d2 de/f/|"G"ge f/e/d|
"A5"e2 ef/g/|ae fd|"Em"ea e/f/e/d/|1 "D"BA AB/d/:|2 "D"BA A2||
T: Ray's Classic
K: Gmaj
|:"G"G2 GD|"G/B"EG ED|"C"EA AG/A/|"D"BA Bd|
"G"G2 GD|"Em"EG ED|"C"EA "Am"AG/A/|1 "D"BG BA:|2 "D"BG "G"GB||
|:"G"d2 dG|"C"e2 e2|"Am"Ae Ae|"D"f2 f2|
"D/F#"Bf Bf|"Em"g2 "D"f>e|"C"dB AG/A/|1 "D"BG "G"G/A/B/c/:|2 "D"BG BA||

